@extra/phlat-icons/symbolic-22/preferences-desktop-theme.svg

<?xml version="1.0" encoding="UTF-8" standalone="no"?>
<svg
   xmlns:dc="http://purl.org/dc/elements/1.1/"
   xmlns:cc="http://creativecommons.org/ns#"
   xmlns:rdf="http://www.w3.org/1999/02/22-rdf-syntax-ns#"
   xmlns:svg="http://www.w3.org/2000/svg"
   xmlns="http://www.w3.org/2000/svg"
   viewBox="-2 -2 22 22"
   height="16"
   width="16"
   id="svg2"
   version="1.1">
  <metadata
     id="metadata8">
    <rdf:RDF>
      <cc:Work
         rdf:about="">
        <dc:format>image/svg+xml</dc:format>
        <dc:type
           rdf:resource="http://purl.org/dc/dcmitype/StillImage" />
        <dc:title></dc:title>
      </cc:Work>
    </rdf:RDF>
  </metadata>
  <defs
     id="defs6" />
  <g
     style="fill:#f1f2f2"
     transform="matrix(0.0253302,0,0,0.02439024,-0.08456458,-0.44977268)"
     id="g4515">
    <path
       id="rect4519"
       transform="matrix(39.478567,0,0,41.000007,3.3384884,18.440683)"
       d="M 6.2167969 1.0683594 C 3.2605558 1.4817931 1 3.9143703 1 6.8789062 L 1 12 L 1 13 L 1 14 C 1 14.554 1.4637122 15 2.0390625 15 L 13.960938 15 C 14.536286 15 15 14.554 15 14 L 15 13 L 15 12 L 15 6.8789062 C 15 3.9156511 12.741469 1.4833639 9.7871094 1.0683594 L 11.921875 3.0898438 C 12.007505 3.2065976 12.03607 3.353518 12 3.4921875 L 8.4941406 12.617188 C 8.3647412 13.111535 7.6352588 13.111535 7.5058594 12.617188 L 4 3.5136719 C 3.9639318 3.3750024 3.99246 3.2280819 4.078125 3.1113281 L 6.2167969 1.0683594 z M 12.003906 8 C 12.32145 8.0031835 13.139941 9.5108315 12.978516 9.7949219 C 12.81709 10.079012 11.150259 10.062665 10.994141 9.7753906 C 10.838023 9.4881167 11.686362 7.9968165 12.003906 8 z "
       style="opacity:1;fill:#f1f2f2;fill-opacity:1;stroke:none;stroke-width:1.06904519;stroke-miterlimit:4;stroke-dasharray:none;stroke-opacity:1" />
    <path
       style="opacity:1;fill:#f1f2f2;fill-opacity:1;stroke:none;stroke-width:2;stroke-miterlimit:4;stroke-dasharray:none;stroke-opacity:1"
       id="path4541"
       d="m 12.597445,11.700273 c -0.194066,0.369319 -2.382644,0.456436 -2.6054503,0.103711 -0.2228066,-0.352725 0.7960363,-2.2916476 1.2129083,-2.3082413 0.416872,-0.016594 1.586607,1.8352123 1.392542,2.2045303 z"
       transform="matrix(-1.5425605,31.169547,-31.178605,-1.5421125,632.51508,-192.02282)" />
    <path
       transform="matrix(1.5425605,31.169547,31.178605,-1.5421125,5.8189743,-193.02706)"
       d="m 12.597445,11.700273 c -0.194066,0.369319 -2.382644,0.456436 -2.6054503,0.103711 -0.2228066,-0.352725 0.7960363,-2.2916476 1.2129083,-2.3082413 0.416872,-0.016594 1.586607,1.8352123 1.392542,2.2045303 z"
       id="path4543"
       style="opacity:1;fill:#f1f2f2;fill-opacity:1;stroke:none;stroke-width:2;stroke-miterlimit:4;stroke-dasharray:none;stroke-opacity:1" />
  </g>
</svg>

<svg xmlns="http://www.w3.org/2000/svg" viewBox="-2 -2 22 22">
    <g fill="#f1f2f2">
        <path d="M6.217 1.068C3.26 1.482 1 3.914 1 6.878V14c0 .554.464 1 1.04 1h11.92c.576 0 1.04-.446 1.04-1V6.879c0-2.963-2.259-5.396-5.213-5.81l2.135 2.02a.476.476 0 0 1 .078.403l-3.506 9.125c-.13.495-.859.495-.988 0L4 3.514a.476.476 0 0 1 .078-.403l2.139-2.043zM12.004 8c.317.003 1.136 1.51.975 1.795-.162.284-1.829.268-1.985-.02-.156-.287.692-1.778 1.01-1.775z" stroke-width="1.069"/>
        <path d="M6.205 4.004c-.285-.162-.268-1.829.02-1.985.287-.156 1.778.691 1.775 1.009-.003.317-1.511 1.137-1.795.976z" stroke-width="2"/>
        <path d="M9.795 3.98c.285-.162.268-1.83-.02-1.985-.287-.157-1.778.69-1.775 1.008.003.318 1.511 1.138 1.795.976z" stroke-width="2"/>
    </g>
</svg>
